!!!COM: Music21
!!!OTL: Foliada das Mariñas
!!!OMV: pezas_foliadas_foliada-das-marinas_foliada-das-marinas-partitura.musicxml
**kern
*I"Bagpipes
*I'Bag
*clefG^2
*k[]
*M3/4
=1
!LO:TX:a:t=Prestissimo
*MM200
!LO:TX:a:t=[quarter]=200
4r
4gg
4gg
=||
4ff
8ggL
8ffJ
4ee
=
4cc
4gg
4gg
=
4ff
8ggL
8ffJ
[4ee
=
4ee]
4ee
4ee
=
4dd
8ccL
8ddJ
4ee
=
4ff
4gg
4ee
=
4dd
8ccL
8ddJ
[4cc
=
4cc]
4gg
4gg
=||
4ff
8ggL
8ffJ
4ee
=
4cc
4gg
4gg
!!linebreak:original
=
4ff
8ggL
8ffJ
[4ee
=
4ee]
4ee
4ee
=
4dd
8ccL
8ddJ
4ee
=
4ff
4gg
4ee
=
4dd
8ccL
8ddJ
[4cc
=
2.cc_
!!linebreak:original
=
2.cc_
=
4cc]
4r
4gg
=||
2gg
4ee
=
4cc
4ee
4ee
=
4.dd
16eeLL
16ddJJ
[4cc
=
2.cc_
=
2.cc_
=
4cc]
4r
4gg
=
2gg
4ee
=
4cc
4ee
4gg
=
4.aa
8gg
[4aa
=
2aa]
4ccc
=
2gg
4ee
!!linebreak:original
=
4cc
4ee
4gg
!!linebreak:original
=
2ff
[4ee
=
2.ee_
=
2.ee_
=
4ee]
4r
4gg
=
2gg
4ee
=
4cc
4ee
4gg
=
4.aa
8gg
[4aa
=
2aa]
4ccc
=
2gg
4ee
=
4cc
4ee
4ee
=
4.dd
16eeLL
16ddJJ
[4cc
=
2.cc_
=
2.cc_
=
4cc]
4r
4gg
!!linebreak:original
=
2gg
4ee
!!linebreak:original
=
4cc
4ee
4gg
=
4.aa
8gg
[4aa
=
2aa]
4ccc
=
2gg
4ee
=
4cc
4ee
4gg
=
2ff
[4ee
=
2ee]
4gg
=
2ff
4ee
=
4cc
4ee
4ee
=
4.dd
16eeLL
16ddJJ
[4cc
=
4cc]
4gg
4gg
=||
4ff
8ggL
8ffJ
4ee
!!linebreak:original
=
4cc
4gg
4gg
!!linebreak:original
=
4ff
8ggL
8ffJ
[4ee
=
4ee]
4ee
4ee
=
4dd
8ccL
8ddJ
4ee
=
4ff
4gg
4ee
=
4dd
8ccL
8ddJ
[4cc
=
4cc]
4gg
4gg
=||
4ff
8ggL
8ffJ
4ee
=
4cc
4gg
4gg
!!linebreak:original
=
4ff
8ggL
8ffJ
[4ee
=
4ee]
4ee
4ee
=
4dd
8ccL
8ddJ
4ee
=
4ff
4gg
4ee
=||
4dd
8ccL
8ddJ
[4cc
=
2.cc_
=
2.cc_
=
4cc]
4gg
4gg
=||
4dd
8ccL
8ddJ
[4cc
!!linebreak:original
=
2.cc_
=
2.cc_
=
4cc]
2r
==
*-
